brandFactory_export/3.Masa/Ducha baño bañera _3Masa.svg

<?xml version="1.0" encoding="UTF-8"?>
<svg width="24px" height="24px" viewBox="0 0 24 24" version="1.1" xmlns="http://www.w3.org/2000/svg" xmlns:xlink="http://www.w3.org/1999/xlink">
    <title>3.Masa/Ducha baño bañera _3Masa</title>
    <g id="Symbols" stroke="none" stroke-width="1" fill="none" fill-rule="evenodd">
        <g id="3.Masa/Ducha-baño-bañera-_3Masa" fill="#5CB615" fill-rule="nonzero">
            <path d="M2.01344538,12.0941176 L21.6773109,12.0941176 C21.9462185,12.0941176 22.3596639,12.410084 22.3596639,12.8 C22.3596639,13.189916 21.9462185,13.5058824 21.6773109,13.5058824 L2.01344538,13.5058824 C1.74453782,13.5058824 1.36806723,13.189916 1.36806723,12.8 C1.36806723,12.410084 1.74453782,12.0941176 2.01344538,12.0941176 Z M13.2436975,10.6285714 C13.4084034,10.487395 13.7781513,10.4773109 13.9193277,10.5008403 C14.1243697,10.5310924 14.3294118,10.4806723 14.487395,10.3529412 C14.6487395,10.2285714 14.7529412,10.0436975 14.7731092,9.84201681 C14.810084,9.45882353 14.9512605,9.35798319 14.9983193,9.32436975 C15.2403361,9.15294118 15.6806723,9.20672269 15.8117647,9.23361345 C16.0638655,9.29411765 16.3361345,9.22352941 16.5210084,9.03529412 C16.9680672,8.58823529 17.2806723,8.60504202 17.3781513,8.61848739 C17.8453782,8.65546218 18.2857143,9.12605042 18.410084,9.30084034 C18.5647059,9.52268908 18.8268908,9.64033613 19.0957983,9.61008403 C19.7176471,9.54621849 20.1781513,9.64705882 20.4739496,9.90588235 C20.8235294,10.2151261 20.8907563,10.6991597 20.9042017,10.8672269 L13.1327731,10.8672269 C13.1596639,10.7092437 13.2201681,10.6487395 13.2436975,10.6285714 L13.2436975,10.6285714 Z M7.57983193,5.08907563 C7.67058824,4.61176471 8.09411765,4.24537815 8.60504202,4.24537815 C9.11260504,4.24537815 9.5394958,4.61176471 9.62689076,5.08907563 L7.57983193,5.08907563 L7.57983193,5.08907563 Z M23.6571429,12.8336134 C23.6571429,12 23.1294118,11.2907563 22.3865546,11.005042 C22.389916,10.9848739 22.4,10.9647059 22.4,10.9445378 C22.4033613,10.8134454 22.389916,9.64369748 21.4857143,8.82689076 C20.9445378,8.3394958 20.2218487,8.09747899 19.3613445,8.1210084 C19.3512605,8.1210084 19.3445378,8.11764706 19.3378151,8.11092437 C18.9882353,7.74453782 18.3495798,7.22352941 17.5058824,7.15294118 C17.0756303,7.11932773 16.4268908,7.19663866 15.7512605,7.74117647 C15.3378151,7.70420168 14.6890756,7.73781513 14.1411765,8.11764706 C13.8991597,8.28907563 13.6134454,8.57142857 13.4386555,9.03529412 C13.0756303,9.07563025 12.6386555,9.19663866 12.2756303,9.50588235 C12.0067227,9.73445378 11.7042017,10.1546218 11.6537815,10.8369748 C11.6537815,10.8537815 11.6369748,10.8705882 11.6201681,10.8705882 L3.70756303,10.8705882 C3.68739496,10.8705882 3.67058824,10.8537815 3.67058824,10.8336134 L3.67058824,3.6907563 C3.67058824,2.74285714 4.26218487,1.84201681 5.18319328,1.58655462 C6.31932773,1.27058824 7.38487395,1.9092437 7.74117647,2.88739496 C7.74789916,2.90756303 7.73781513,2.92773109 7.71764706,2.93445378 C6.75966387,3.2907563 6.07058824,4.20168067 6.07058824,5.27394958 L6.07058824,5.54621849 C6.07058824,6.10756303 6.53109244,6.56134454 7.09579832,6.56134454 L10.1042017,6.56134454 C10.6689076,6.56134454 11.1294118,6.10420168 11.1294118,5.54621849 L11.1294118,5.27394958 C11.1294118,4.13109244 10.3462185,3.17310924 9.28739496,2.87394958 C9.27731092,2.87058824 9.26722689,2.8605042 9.26386555,2.85042017 C8.88403361,1.08907563 7.19327731,-0.188235294 5.28403361,0.0638655462 C3.45882353,0.305882353 2.17478992,1.98319328 2.17478992,3.80840336 L2.17478992,10.8739496 L2.1210084,10.8739496 C1.15966387,10.8739496 0.255462185,11.502521 0.0672268908,12.4403361 C-0.0773109244,13.1663866 0.18487395,13.8285714 0.662184874,14.2689076 C0.668907563,14.2756303 0.672268908,14.2823529 0.672268908,14.292437 L0.672268908,17.3478992 C0.672268908,20.1848739 3.47563025,22.4571429 6.26218487,22.9512605 C6.47058824,23.3647059 6.89411765,23.6571429 7.39159664,23.6571429 C7.83865546,23.6571429 8.21512605,23.4151261 8.44033613,23.0689076 C8.44705882,23.0588235 8.45714286,23.0554622 8.47058824,23.0554622 L15.1394958,23.0554622 C15.1495798,23.0554622 15.1630252,23.0588235 15.1663866,23.0689076 C15.394958,23.4151261 15.7714286,23.6571429 16.2151261,23.6571429 C16.7092437,23.6571429 17.1294118,23.3680672 17.3411765,22.9613445 C20.1478992,22.4907563 22.994958,20.205042 22.994958,17.3478992 L22.9882353,14.2991597 C22.9882353,14.2890756 22.9915966,14.2823529 22.9983193,14.2756303 C23.4084034,13.912605 23.6571429,13.405042 23.6571429,12.8336134 Z" id="Ducha-baño-bañera-_3Masa"></path>
        </g>
    </g>
</svg>

<svg width="24" height="24" viewBox="0 0 24 24" xmlns="http://www.w3.org/2000/svg"><path d="M2.013 12.094h19.664c.27 0 .683.316.683.706 0 .39-.414.706-.683.706H2.013c-.268 0-.645-.316-.645-.706 0-.39.377-.706.645-.706zm11.23-1.465c.165-.142.535-.152.676-.128.205.03.41-.02.568-.148a.74.74 0 00.286-.511c.037-.383.178-.484.225-.518.242-.171.683-.117.814-.09a.75.75 0 00.709-.199c.447-.447.76-.43.857-.417.467.037.908.508 1.032.683.155.222.417.34.686.31.622-.065 1.082.036 1.378.295.35.31.417.793.43.961h-7.771c.027-.158.087-.218.11-.238zM7.58 5.089a1.044 1.044 0 012.047 0H7.58zm16.077 7.745c0-.834-.528-1.543-1.27-1.829.003-.02.013-.04.013-.06.003-.132-.01-1.301-.914-2.118-.541-.488-1.264-.73-2.125-.706a.03.03 0 01-.023-.01c-.35-.366-.988-.887-1.832-.958-.43-.034-1.08.044-1.755.588-.413-.037-1.062-.003-1.61.377a1.941 1.941 0 00-.702.917c-.363.04-.8.162-1.163.47-.27.23-.572.65-.622 1.332a.036.036 0 01-.034.034H3.708a.037.037 0 01-.037-.037V3.69c0-.948.591-1.849 1.512-2.104a2.103 2.103 0 012.558 1.3.036.036 0 01-.023.047c-.958.357-1.647 1.268-1.647 2.34v.272c0 .562.46 1.015 1.025 1.015h3.008c.565 0 1.025-.457 1.025-1.015v-.272c0-1.143-.783-2.1-1.842-2.4a.04.04 0 01-.023-.024A3.587 3.587 0 005.284.064c-1.825.242-3.11 1.92-3.11 3.744v7.066h-.053c-.961 0-1.866.629-2.054 1.566a1.94 1.94 0 00.595 1.829.03.03 0 01.01.023v3.056c0 2.837 2.804 5.11 5.59 5.603.209.414.632.706 1.13.706a1.25 1.25 0 001.048-.588c.007-.01.017-.014.03-.014h6.67c.01 0 .023.004.026.014.229.346.605.588 1.05.588.493 0 .913-.289 1.125-.696 2.807-.47 5.654-2.756 5.654-5.613l-.007-3.049a.03.03 0 01.01-.023c.41-.363.66-.871.66-1.442z" fill="#5CB615" fill-rule="nonzero"/></svg>
